public/images/ticket.svg

<svg width="64" height="64" viewBox="0 0 64 64" fill="none" xmlns="http://www.w3.org/2000/svg">
<path d="M61.0287 22.9218C61.6709 23.564 61.7594 24.5745 61.2386 25.3185C51.711 38.9312 39.9295 50.8174 26.4017 60.4651L25.3334 61.227C24.55 61.7857 23.4776 61.6966 22.7972 61.0162L17.988 56.207C20.827 53.2673 20.7958 48.5826 17.8944 45.6813C14.9931 42.7799 10.3084 42.7487 7.36876 45.5877L2.94515 41.1641C2.10392 40.3229 2.21992 38.9275 3.18851 38.2367L4.25747 37.4744C17.4582 28.0599 28.9549 16.4609 38.2522 3.17739C38.9035 2.24693 40.237 2.13013 41.0401 2.93321L45.5423 7.43543C42.714 10.3758 42.7487 15.0524 45.6464 17.9501C48.5442 20.8479 53.2207 20.8826 56.1611 18.0543L61.0287 22.9218Z" fill="#DBCDF9"/>
<path d="M63.1603 24.2517L45.9669 46.0228L23.7289 62.8562L19.4522 58.5486L17.9092 56.6781L19.4522 54.4455L19.9929 52.213L19.6953 49.8316L18.8022 47.599L17.3139 45.813L15.5278 44.6223L13.5929 44.0269H11.2115L8.68131 44.92L7.19294 46.2595L3.62085 41.9432L9.43162 41.0766C27.4548 38.3886 44.484 31.1114 58.8836 19.9441L63.1603 24.2517Z" fill="#A28BD4"/>
<path fill-rule="evenodd" clip-rule="evenodd" d="M15.8179 56.4156C15.8186 55.7832 16.0708 55.177 16.5189 54.7307L16.5269 54.7228C18.5297 52.7199 18.5297 49.4726 16.5269 47.4697C14.524 45.4668 11.2767 45.4668 9.27378 47.4697L9.26587 47.4776C8.8196 47.9258 8.21339 48.178 7.58094 48.1787C6.94849 48.1793 6.34175 47.9284 5.89453 47.4812L1.26125 42.8479C-0.621025 40.9656 -0.361479 37.8434 1.80577 36.2978L2.87473 35.5354L4.25747 37.4742L3.18851 38.2366C2.21992 38.9274 2.10392 40.3228 2.94515 41.164L7.57843 45.7973L7.58988 45.7858C7.59353 45.7822 7.59719 45.7785 7.60085 45.7749C10.5346 42.8529 15.2815 42.8566 18.2108 45.7858C21.1398 48.7148 21.1436 53.4613 18.2224 56.3951C18.2185 56.3989 18.2146 56.4028 18.2108 56.4067L18.1993 56.4181L22.7972 61.0161C23.4776 61.6965 24.55 61.7856 25.3334 61.2269L26.4017 60.465C39.9295 50.8173 51.711 38.931 61.2386 25.3184C61.7594 24.5744 61.6709 23.5639 61.0287 22.9217L56.199 18.092C56.1814 18.1099 56.1638 18.1277 56.146 18.1455C56.1283 18.1632 56.1104 18.1809 56.0925 18.1985C53.1556 21.0782 48.4402 21.0606 45.5252 18.1455C42.61 15.2303 42.5924 10.5149 45.4723 7.57797C45.4898 7.56011 45.5074 7.54231 45.5252 7.52458C45.5429 7.50683 45.5607 7.48919 45.5786 7.47165L41.0401 2.9331C40.237 2.13002 38.9035 2.24682 38.2522 3.17728C28.9549 16.4608 17.4582 28.0597 4.25747 37.4742L2.87473 35.5354C15.8548 26.2783 27.1594 14.8732 36.3013 1.81175C37.8016 -0.331878 40.8738 -0.600966 42.724 1.2492L47.2625 5.78775C47.712 6.2372 47.9631 6.84769 47.96 7.48331C47.9569 8.11893 47.6998 8.72693 47.2459 9.17196C47.2336 9.18403 47.2213 9.19621 47.2091 9.20848C45.2062 11.2114 45.2062 14.4587 47.2091 16.4616C49.2119 18.4644 52.4593 18.4644 54.4621 16.4616C54.4743 16.4494 54.4865 16.4371 54.4987 16.4247C54.9437 15.9708 55.5517 15.7138 56.1873 15.7106C56.8229 15.7075 57.4334 15.9587 57.8829 16.4081L62.7126 21.2378C64.1718 22.6971 64.3729 24.9933 63.1896 26.684C53.5066 40.5186 41.5329 52.5988 27.7845 62.4038L26.7162 63.1657C24.9855 64.4 22.6164 64.203 21.1133 62.7L16.5154 58.102C16.0682 57.6548 15.8172 57.0481 15.8179 56.4156Z" fill="#633001"/>
<path fill-rule="evenodd" clip-rule="evenodd" d="M31.9907 11.2533L33.0431 12.3057C33.5081 12.7707 33.5081 13.5246 33.0431 13.9896C32.5781 14.4546 31.8242 14.4546 31.3592 13.9896L30.3068 12.9372C29.8418 12.4722 29.8418 11.7182 30.3067 11.2533C30.7717 10.7883 31.5257 10.7883 31.9907 11.2533Z" fill="#633001"/>
<path fill-rule="evenodd" clip-rule="evenodd" d="M36.411 15.6737L37.4634 16.7261C37.9284 17.1911 37.9284 17.945 37.4634 18.41C36.9984 18.875 36.2445 18.875 35.7795 18.41L34.7271 17.3576C34.2621 16.8926 34.2621 16.1387 34.7271 15.6737C35.1921 15.2087 35.946 15.2087 36.411 15.6737Z" fill="#633001"/>
<path fill-rule="evenodd" clip-rule="evenodd" d="M41.8837 22.8302C41.4187 23.2952 40.6648 23.2952 40.1998 22.8302L38.9368 21.5672C38.4718 21.1022 38.4718 20.3483 38.9368 19.8833C39.4018 19.4183 40.1557 19.4183 40.6207 19.8833L41.8837 21.1463C42.3487 21.6113 42.3487 22.3652 41.8837 22.8302Z" fill="#633001"/>
<path fill-rule="evenodd" clip-rule="evenodd" d="M46.3039 27.2503C45.8389 27.7153 45.085 27.7153 44.62 27.2503L43.357 25.9874C42.892 25.5224 42.892 24.7685 43.357 24.3035C43.822 23.8385 44.5759 23.8385 45.0409 24.3035L46.3039 25.5664C46.7689 26.0314 46.7689 26.7853 46.3039 27.2503Z" fill="#633001"/>
<path fill-rule="evenodd" clip-rule="evenodd" d="M49.4612 28.7237L50.5136 29.7762C50.9786 30.2411 50.9786 30.9951 50.5136 31.4601C50.0486 31.925 49.2947 31.925 48.8297 31.4601L47.7773 30.4076C47.3123 29.9426 47.3123 29.1887 47.7773 28.7237C48.2423 28.2587 48.9962 28.2587 49.4612 28.7237Z" fill="#633001"/>
<path fill-rule="evenodd" clip-rule="evenodd" d="M53.8814 33.1441L54.9338 34.1966C55.3988 34.6616 55.3988 35.4155 54.9338 35.8805C54.4688 36.3455 53.7149 36.3455 53.2499 35.8805L52.1975 34.828C51.7325 34.363 51.7325 33.6091 52.1975 33.1441C52.6625 32.6791 53.4164 32.6791 53.8814 33.1441Z" fill="#633001"/>
<path fill-rule="evenodd" clip-rule="evenodd" d="M25.8329 29.7029C24.5538 28.4238 24.5538 26.3501 25.8329 25.071C27.2823 23.6216 29.6919 23.8446 30.8506 25.5355L33.7682 29.7931C36.3148 28.9762 39.0172 29.0846 40.808 30.8754C42.4178 32.4852 42.6621 34.8575 42.1164 37.1184C41.5646 39.4047 40.169 41.813 38.117 43.865C36.0651 45.9169 33.6567 47.3125 31.3704 47.8643C29.1096 48.4101 26.7373 48.1657 25.1275 46.5559C23.3471 44.7755 23.2299 42.0933 24.0307 39.5614L19.7549 36.6312C18.064 35.4725 17.8409 33.063 19.2904 31.6136C20.5694 30.3345 22.6432 30.3345 23.9223 31.6136L26.885 34.5763C27.1784 34.2325 27.4897 33.8952 27.8185 33.5664C28.136 33.2489 28.4615 32.9476 28.7931 32.6631L25.8329 29.7029Z" fill="#633001"/>
<ellipse rx="1.43212" ry="2.08308" transform="matrix(0.707107 -0.707106 0.707107 0.707106 29.5212 40.4549)" fill="#DBCDF9"/>
<ellipse rx="1.43212" ry="2.08308" transform="matrix(0.707108 -0.707106 0.707108 0.707106 34.8607 35.1153)" fill="#DBCDF9"/>
</svg>

<svg xmlns="http://www.w3.org/2000/svg" xmlns:xlink="http://www.w3.org/1999/xlink" width="64" height="64" fill="none" xmlns:v="https://vecta.io/nano"><path d="M61.03 22.922a1.87 1.87 0 0 1 .21 2.397 145.99 145.99 0 0 1-34.837 35.147l-1.068.762a1.97 1.97 0 0 1-2.536-.211l-4.81-4.81A7.51 7.51 0 0 0 7.369 45.588l-4.424-4.424c-.84-.84-.725-2.237.243-2.927l1.07-.762A142.46 142.46 0 0 0 38.252 3.177c.65-.93 1.985-1.047 2.788-.244l4.502 4.502a7.51 7.51 0 0 0 10.619 10.619l4.868 4.868z" fill="#dbcdf9"/><path d="M63.16 24.252l-17.193 21.77L23.73 62.856l-4.277-4.308-1.543-1.87 1.543-2.233.54-2.233-.298-2.38-.893-2.233-1.488-1.786-1.786-1.19-1.935-.595h-2.38l-2.53.893-1.488 1.34-3.572-4.316 5.81-.867c18.023-2.688 35.052-9.965 49.452-21.132l4.277 4.308z" fill="#a28bd4"/><g fill-rule="evenodd" fill="#633001"><path d="M15.818 56.416a2.38 2.38 0 0 1 .701-1.685l.008-.008a5.13 5.13 0 0 0-7.253-7.253l-.008.008a2.38 2.38 0 0 1-3.371.004L1.26 42.848a4.31 4.31 0 0 1 .545-6.55l1.07-.762 1.383 1.94-1.07.762c-.97.69-1.085 2.086-.243 2.927l4.633 4.633.01-.01c2.945-2.933 7.692-2.93 10.62 0a7.51 7.51 0 0 1 .012 10.609l-.023.023 4.598 4.598a1.97 1.97 0 0 0 2.536.211l1.068-.762a145.99 145.99 0 0 0 34.837-35.147 1.87 1.87 0 0 0-.21-2.397l-4.83-4.83-.053.053-.053.053a7.51 7.51 0 0 1-10.62-10.621l.053-.053.053-.053-4.538-4.54c-.803-.803-2.137-.686-2.788.244A142.46 142.46 0 0 1 4.257 37.474l-1.383-1.94A140.08 140.08 0 0 0 36.301 1.812a4.21 4.21 0 0 1 6.423-.563l4.54 4.54a2.38 2.38 0 0 1-.017 3.384l-.037.037a5.13 5.13 0 0 0 7.253 7.253l.037-.037a2.38 2.38 0 0 1 3.384-.017l4.83 4.83c1.46 1.46 1.66 3.756.477 5.446a148.37 148.37 0 0 1-35.405 35.72l-1.068.762a4.35 4.35 0 0 1-5.603-.466l-4.598-4.598a2.38 2.38 0 0 1-.697-1.686z"/><use xlink:href="#B"/><use xlink:href="#B" x="4.42" y="4.421"/><use xlink:href="#C"/><use xlink:href="#C" x="4.42" y="4.42"/><path d="M49.46 28.724l1.052 1.052a1.19 1.19 0 1 1-1.684 1.684l-1.052-1.053a1.19 1.19 0 1 1 1.684-1.684z"/><use xlink:href="#B" x="21.89" y="21.891"/><path d="M25.833 29.703c-1.28-1.28-1.28-3.353 0-4.632 1.45-1.45 3.86-1.226 5.018.464l2.918 4.258c2.547-.817 5.25-.71 7.04 1.082 1.6 1.6 1.854 3.982 1.308 6.243-.552 2.286-1.947 4.695-4 6.747s-4.46 3.447-6.747 4c-2.26.546-4.633.3-6.243-1.308-1.78-1.78-1.898-4.463-1.097-6.995l-4.276-2.93c-1.69-1.16-1.914-3.568-.464-5.018 1.28-1.28 3.353-1.28 4.632 0l2.963 2.963.933-1 .975-.903-2.96-2.96z"/></g><g fill="#dbcdf9"><ellipse rx="1.432" ry="2.083" transform="matrix(.707107 -.707106 .707107 .707106 29.5212 40.4549)"/><ellipse rx="1.432" ry="2.083" transform="matrix(.707108 -.707106 .707108 .707106 34.8607 35.1153)"/></g><defs ><path id="B" d="M31.99 11.253l1.052 1.052a1.19 1.19 0 1 1-1.684 1.684l-1.052-1.052a1.19 1.19 0 1 1 1.684-1.684z"/><path id="C" d="M41.884 22.83a1.19 1.19 0 0 1-1.684 0l-1.263-1.263a1.19 1.19 0 1 1 1.684-1.684l1.263 1.263a1.19 1.19 0 0 1 0 1.684z"/></defs></svg>
